flaticon/productivity-and-development/letter.svg

<svg xmlns="http://www.w3.org/2000/svg" width="32" height="32" viewBox="0 0 24 24">
    <path d="M 24 19.5625 L 0 19.5625 L 0 4.4375 L 24 4.4375 Z M 1.019531 18.542969 L 22.980469 18.542969 L 22.980469 5.457031 L 1.019531 5.457031 Z M 1.019531 18.542969"/>
    <path d="M6.007812 12.488281L14.417969 12.488281 14.417969 13.507812 6.007812 13.507812zM6.007812 15.425781L14.417969 15.425781 14.417969 16.445312 6.007812 16.445312zM21.820312 11.714844L17.855469 11.714844 17.855469 7.128906 21.820312 7.128906zM18.878906 10.695312L20.800781 10.695312 20.800781 8.148438 18.878906 8.148438zM18.878906 10.695312"/>
</svg>

<svg xmlns="http://www.w3.org/2000/svg" width="32" height="32" viewBox="0 0 24 24">
    <path d="M24 19.563H0V4.438h24zm-22.98-1.02h21.96V5.457H1.02zm0 0"/>
    <path d="M6.008 12.488h8.41v1.02h-8.41zm0 0M6.008 15.426h8.41v1.02h-8.41zm0 0M21.82 11.715h-3.965V7.129h3.965zm-2.941-1.02H20.8V8.148h-1.922zm0 0"/>
</svg>
